Origami/64x64/apps/stage.svg

<svg width="64" height="64" version="1" xmlns="http://www.w3.org/2000/svg">
 <path d="m4 56v2c0 1.662 1.338 3 3 3h50c1.662 0 3-1.338 3-3v-2c0 1.662-1.338 3-3 3h-50c-1.662 0-3-1.338-3-3z" style="opacity:.2"/>
 <rect transform="matrix(0,-1,-1,0,0,0)" x="-60" y="-60" width="56" height="56" rx="3" ry="3" style="fill:#cccccc"/>
 <path d="m7 4c-1.662 0-3 1.338-3 3v1c0-1.662 1.338-3 3-3h50c1.662 0 3 1.338 3 3v-1c0-1.662-1.338-3-3-3h-50z" style="fill:#ffffff;opacity:.1"/>
 <path d="m23.000562 24.999438c-2.76184 0-5.000562 2.238722-5.000562 5.000562 0 2.761465 2.238535 5 5 5s5-2.238535 5-5h-5z" style="fill:#ff0000;opacity:.5"/>
 <path d="m31 26v2h14v-2z" style="opacity:.5"/>
 <path d="m31 32v2h14v-2z" style="opacity:.5"/>
 <path d="m19 38v2h20v-2z" style="opacity:.5"/>
</svg>

<svg xmlns="http://www.w3.org/2000/svg" width="64" height="64" version="1">
 <path style="opacity:0.2" d="m 4,56 0,2 c 0,1.662 1.338,3 3,3 l 50,0 c 1.662,0 3,-1.338 3,-3 l 0,-2 c 0,1.662 -1.338,3 -3,3 L 7,59 C 5.338,59 4,57.662 4,56 Z"/>
 <rect style="fill:#cccccc" width="56" height="56" x="-60" y="-60" rx="3" ry="3" transform="matrix(0,-1,-1,0,0,0)"/>
 <path style="opacity:0.1;fill:#ffffff" d="M 7 4 C 5.338 4 4 5.338 4 7 L 4 8 C 4 6.338 5.338 5 7 5 L 57 5 C 58.662 5 60 6.338 60 8 L 60 7 C 60 5.338 58.662 4 57 4 L 7 4 z"/>
 <path style="opacity:0.5;fill:#ff0000" d="M 23.000562,24.999438 C 20.238722,24.999438 18,27.23816 18,30 c 0,2.761465 2.238535,5 5,5 2.761465,0 5,-2.238535 5,-5 l -5,0 z"/>
 <path style="opacity:0.5" d="m 31,26 0,2 14,0 0,-2 z"/>
 <path style="opacity:0.5" d="m 31,32 0,2 14,0 0,-2 z"/>
 <path style="opacity:0.5" d="m 19,38 0,2 20,0 0,-2 z"/>
</svg>
